storage/app/icons/phosphoricons/bold/hand-soap-bold.svg

<svg xmlns="http://www.w3.org/2000/svg" fill="currentColor" viewBox="0 0 256 256"><path d="M188 97.68V92a36 36 0 0 0-36-36h-12V36h28a4 4 0 0 1 4 4 12 12 0 0 0 24 0 28 28 0 0 0-28-28h-64a12 12 0 0 0 0 24h12v20h-12a36 36 0 0 0-36 36v5.68A44.06 44.06 0 0 0 36 140v76a20 20 0 0 0 20 20h144a20 20 0 0 0 20-20v-76a44.06 44.06 0 0 0-32-42.32M104 80h48a12 12 0 0 1 12 12v4H92v-4a12 12 0 0 1 12-12m92 132H60v-72a20 20 0 0 1 20-20h96a20 20 0 0 1 20 20Z"/></svg>

<svg xmlns="http://www.w3.org/2000/svg" viewBox="0 0 256 256" fill="currentColor"><path d="M188,97.68V92a36,36,0,0,0-36-36H140V36h28a4,4,0,0,1,4,4,12,12,0,0,0,24,0,28,28,0,0,0-28-28H104a12,12,0,0,0,0,24h12V56H104A36,36,0,0,0,68,92v5.68A44.06,44.06,0,0,0,36,140v76a20,20,0,0,0,20,20H200a20,20,0,0,0,20-20V140A44.06,44.06,0,0,0,188,97.68ZM104,80h48a12,12,0,0,1,12,12v4H92V92A12,12,0,0,1,104,80Zm92,132H60V140a20,20,0,0,1,20-20h96a20,20,0,0,1,20,20Z"/></svg>
